X:7
T:Dark Island
S:Bernie Waugh
R:Waltz
M:3/4
L:1/8
K:G
"Am"A2ABAG|"Em"EGG2AG|"C"DEE2DC|"G"B,D2D GA|
"G"B3{c}B AG|"Em"Bd3EG|"A7"B4{c}BA|"D"A6|
"Am"A2ABAG|"Em"EGG2G/A/G|"C"DE EDCE|"G"D3D GA|
"G"B4{c}BA|"D"A4A2-|"C"ABAGEG|"G"G3ABc||
"Dm"d4D/E/D|"G7"B3c/B/ AG|"C"EC3DE|"G"D3DGA|
"G"B3c/B/ AG|"Em"Bd3EG|"A7"B3c/B/ BA|"D"A6|
"F"A2ABAG|"C"EGG2AG|DEE2DC|"G"B,D2D GA|
"G"B4{c}BA|"D"A4AB|"C"G3A GE|"G"G6|]

